X:1
Q:1/4=87
L:1/8
M:1/4
K:C clef=G2
V:1
%%MIDI program 52
z2|z2|z2|z2|
z2|z2|z2|z2|
z2|z2|z2|z2|
z2|z2|z2|z2|
zD31/32|G31/16|Az/2G31/64|B31/16|
cz/2A31/64|e2-|e31/16|d31/16|
zd31/32|c31/16|Bz/2A31/64|B31/16|
Az/2G31/64|A2-|A2-|A31/16|
z^F31/32|G31/16|Az/2G31/64|B31/16|
cz/2A31/64|e2-|e31/16|d31/16|
zd31/32|g31/16|dz/2c31/64|B31/16|
cz/2^F31/64|G2-|G2-|G31/16|
zB31/32|B31/32A31/32|G31/32^F31/32|E31/16|
Az/2G31/64|G2-|G31/16|^F31/16|
zc31/32|c31/32B31/32|A31/32G31/32|^F31/16|
dz/2c31/64|B2-|B2-|B31/16|
zd31/32|d31/16|Bz/2G31/64|f31/16|
ez/2d31/64|e2-|e31/16|e31/32z|
ez/2^f31/64|g31/16|dz/2c31/64|B31/16|
cz/2A31/64|d2-|d2-|d31/16|
zd31/32|d31/16|Bz/2G31/64|f31/16|
ez/2d31/64|e2-|e31/16|e31/32z|
L:1/8
M:1/4
K:C clef=G2
V:2
%%MIDI program 0
[^FAd]15/8|[Bdg]15/8|[^F-A-d][^F-A-]/2[d-^FA]3/8|[G-B-d][G-B-]/2[d-GB]3/8|
[Gce]z/2[c^f]15/32|[Beg]15/8|[Ad^f]15/8|[Bdg]15/8|
[Gce]z/2[c^f]15/32|[Bdg]15/8|[CEGd]z/2[Cc]15/32|[^CEGB]15/8|
[^CEA]z/2[^CG]15/32|[D-G-A-c]15/16[B-DGA]7/8|[G,-C-E-A]15/16[G-G,CE]7/8|[A,D^F]15/8|
zD15/16|[B,DG]15/8|[CDA]z/2[DG]15/32|[DGB]15/8|
[CD^Fc]z/2[DA]15/32|[G-c-e-]2|[Gce]7/4z7/32|[GBd]15/8|
zd15/16|[D^FAc]15/8|[DGB]z/2[^FA]15/32|[DGB]15/8|
[^C^FA]z/2[EG]15/32|[^F-A-D-]2|[^FAD]7/4[^F-A-]7/32|[^F-A-D]15/16[D-^FA]3/4[D]3/16|
[CE]15/16[CD^F]15/16|[B,DG]15/8|[CDA]z/2[DG]15/32|[DGB]15/8|
[CD^Fc]z/2[DA]15/32|[G-c-e-]2|[Gce]7/4z7/32|[GBd]15/8|
zd15/16|[GBdg]15/8|[GBd]z/2[GAc]15/32|[DGB]15/8|
[EAc]z/2^F15/32|[B,-D-G-]2|[B,-D-G-]2|[B,-D-G-]3/2[B,DG]3/16z3/8|
zB15/16|B15/16A15/16|G15/16^F15/16|E15/8|
Az/2G15/32|G2-|G7/4z7/32|^F15/8|
z[^FAc]15/16|[D-Ac]15/16[D-GB]15/16|[D-^FA]15/16[E-G-D]3/4[EG]3/16|[D^F]15/8|
[Gd]z/2[Ac]15/32|[D-G-B-]2|[D-G-B-]2|[D-G-B-]3/2[DGB]3/16z3/8|
z[GBd]15/16|[GBd]15/8|[D-G-B][D-G]/2[G-D]3/8|[GBdf]15/8|
[Gce]z/2[GBd]15/32|[G-c-e-]2|[Gce]7/4z7/32|[Gce]15/16z|
[G-c-e][G-c-]/2[^f-Gc]3/8|[Bdg]15/8|[GBd]z/2[Ac]15/32|[DGB]15/8|
[^F-A-c][^F-A]/2[A-^F]3/8|[G-B-d-]2|[G-B-d-]2|[G-B-d-]3/2[GBd]3/16z3/8|
z[GBd]15/16|[GBd]15/8|[D-G-B][D-G]/2[G-D]3/8|[GBdf]15/8|
[Gce]z/2[GBd]15/32|[G-c-e-]2|[Gce]7/4z7/32|[Gce]15/16z|
L:1/8
M:1/4
K:C clef=F4
V:3
%%MIDI program 0
[D,,D,]15/8|[G,,,G,,]15/8|[A,,,A,,]15/8|[B,,,B,,]15/8|
[C,,C,]15/8|[E,,E,]15/8|[D,,D,]15/8|[B,,,B,,]15/8|
[C,,C,]15/8|[D,,D,]15/8|[C,,C,]15/8|[^C,,^C,]15/8|
[A,,,A,,]15/8|[D,,-D,-]2|[D,,-D,-]2|[D,,D,]3/4z/4[C,,C,]15/16|
[B,,,B,,]15/16[A,,,A,,]15/16|[G,,,G,,]15/8|[D,,D,]z/2[D,,D,]15/32|[G,,-G,-]2|
[G,,G,]7/4z7/32|[G,,,G,,]15/8|[D,,D,]15/8|[G,,G,]15/8|
[^F,,^F,]15/16[E,,E,]15/16|[^F,,,^F,,]15/8|[D,,D,]15/8|[G,,G,]15/8|
[A,,,A,,]15/8|[D,,D,]15/8|[C,,C,]15/8|[B,,,B,,]15/8|
[A,,,A,,]15/8|[G,,,G,,]15/8|[D,,D,]z/2[D,,D,]15/32|[G,,-G,-]2|
[G,,G,]7/4z7/32|[G,,,G,,]15/8|[D,,D,]15/8|[G,,G,]15/8|
[B,,B,]15/16[A,,A,]15/16|[B,,,B,,]15/8|[G,,G,]z/2[A,,A,]15/32|[G,,G,]15/8|
[G,,G,]15/8|[G,,G,]15/8|[D,,D,]15/8|[G,,,G,,]15/8|
z[B,,B,]15/16|[B,,B,]15/16[A,,A,]15/16|[G,,G,]15/16[^F,,^F,]15/16|[E,,E,]15/8|
[A,,A,]z/2[G,,G,]15/32|[G,,-G,-]2|[G,,G,]7/4z7/32|[^F,,^F,]15/8|
[D,,,-D,,-]2|[D,,,-D,,-]2|[D,,,-D,,-]2|[D,,,-D,,-]2|
[D,,,D,,]z|[G,,G,]15/8|[D,,D,]15/8|[G,,,-G,,-]2|
[G,,,G,,]7/4z7/32|[F,,,-F,,-]2|[F,,,F,,]7/4z7/32|[D,,D,]15/8|
[G,,,G,,]15/8|[C,,C,]15/8|[B,,,B,,]15/8|[G,,,G,,]15/8|
[C,,C,]15/8|[B,,,B,,]15/8|[G,,,G,,]z/2[C,,C,]15/32|[D,,D,]15/8|
[A,,,A,,]z/2[D,,D,]15/32|[B,,,B,,]15/8|[A,,,A,,]15/8|[G,,,-G,,-]2|
[G,,,G,,]7/4z7/32|[D,,D,]15/16[C,,C,]15/16|[B,,,B,,]15/8|[D,,D,]15/8|
[G,,,G,,]15/16[B,,,B,,]15/16|[C,,C,]15/16[E,,E,]15/16|[G,,G,]15/16[B,,B,]15/16|[C,C]15/16[G,,G,]15/16|
Q:1/4=87
L:1/8
M:1/4
K:C clef=G2
V:1
%%MIDI program 52
e3/2
L:1/8
M:1/4
K:C clef=G2
V:2
%%MIDI program 0
[G-c-e][Gc]15/16
L:1/8
M:1/4
K:C clef=F4
V:3
%%MIDI program 0
[C,,C,]15/16
Q:1/4=84
L:1/8
M:1/4
K:C clef=F4
V:2
%%MIDI program 0
A,,31/32
L:1/8
M:1/4
K:C clef=F4
V:3
%%MIDI program 0
A,31/32
Q:1/4=83
L:1/8
M:1/4
K:C clef=G2
V:1
%%MIDI program 52
^f31/64
L:1/8
M:1/4
K:C clef=G2
V:2
%%MIDI program 0
^f15/32
Q:1/4=81
L:1/8
M:1/4
K:C clef=G2
V:1
%%MIDI program 52
g31/16|
L:1/8
M:1/4
K:C clef=G2
V:2
%%MIDI program 0
[Bdg]15/8|
L:1/8
M:1/4
K:C clef=F4
V:3
%%MIDI program 0
[B,,,B,,]15/8|
Q:1/4=75
L:1/8
M:1/4
K:C clef=G2
V:1
%%MIDI program 52
d
L:1/8
M:1/4
K:C clef=G2
V:2
%%MIDI program 0
[GBd]
L:1/8
M:1/4
K:C clef=F4
V:3
%%MIDI program 0
[G,,,G,,]
Q:1/4=71
L:1/8
M:1/4
K:C clef=G2
V:1
%%MIDI program 52
c31/64
L:1/8
M:1/4
K:C clef=G2
V:2
%%MIDI program 0
[Ac]15/32
L:1/8
M:1/4
K:C clef=F4
V:3
%%MIDI program 0
[A,,,A,,]15/32
Q:1/4=70
L:1/8
M:1/4
K:C clef=G2
V:1
%%MIDI program 52
B31/16|
L:1/8
M:1/4
K:C clef=G2
V:2
%%MIDI program 0
[DGB]15/8|
L:1/8
M:1/4
K:C clef=F4
V:3
%%MIDI program 0
[G,,,G,,]15/8|
Q:1/4=64
L:1/8
M:1/4
K:C clef=G2
V:1
%%MIDI program 52
c
L:1/8
M:1/4
K:C clef=G2
V:2
%%MIDI program 0
[^F-A-c][^F-A]/2[^F]7/16
L:1/8
M:1/4
K:C clef=F4
V:3
%%MIDI program 0
[D,,D,]15/8
Q:1/4=60
L:1/8
M:1/4
K:C clef=G2
V:1
%%MIDI program 52
A31/64
L:1/8
M:1/4
K:C clef=G2
V:2
%%MIDI program 0
A15/32
Q:1/4=58
L:1/8
M:1/4
K:C clef=G2
V:1
%%MIDI program 52
G2-|G2-|G2-|G
L:1/8
M:1/4
K:C clef=F4
V:2
%%MIDI program 0
[B,-D-G-]2|[B,-D-G-]2|[B,-D-G-]2|[B,DG]31/32
L:1/8
M:1/4
K:C clef=F4
V:3
%%MIDI program 0
[G,,G,]15/8|[D,,D,]15/8|
Q:1/4=33
L:1/8
M:1/4
K:C clef=F4
V:2
%%MIDI program 0
G,,,15/8
L:1/8
M:1/4
K:C clef=F4
V:3
%%MIDI program 0
G,,15/8
Q:1/4=58


